StripePaymentSheet/StripePaymentSheet/Resources/StripePaymentSheet.xcassets/PaymentMethods/icon-pm-blik.imageset/icon-pm-blik-color.svg

<svg fill="none" height="16" viewBox="0 0 16 16" width="16" xmlns="http://www.w3.org/2000/svg" xmlns:xlink="http://www.w3.org/1999/xlink"><linearGradient id="a" gradientUnits="userSpaceOnUse" x1="8.73691" x2="11.2676" y1="5.05413" y2="2.52341"><stop offset="0" stop-color="#e52f08"/><stop offset="1" stop-color="#e94f96"/></linearGradient><clipPath id="b"><path d="m0 0h16v16h-16z"/></clipPath><g clip-path="url(#b)"><rect fill="#000" height="16" rx="2.5" width="16"/><path d="m11.791 3.78877c0 .47441-.1884.92939-.5239 1.26485-.3354.33546-.7904.52392-1.2648.52392-.47444 0-.92942-.18846-1.26488-.52392s-.52392-.79044-.52392-1.26485.18846-.92939.52392-1.26485.79044-.52392 1.26488-.52392c.4744 0 .9294.18846 1.2648.52392.3355.33546.5239.79044.5239 1.26485z" fill="url(#a)"/><path d="m7.99852 6.41388c-.62601-.00088-1.24242.15383-1.79382.45022v-4.29022h-1.99974v7.63202c-.0002.7503.22207 1.4837.63872 2.1076.41664.6239 1.00893 1.1102 1.70198 1.3974.69304.2873 1.45571.3626 2.19154.2164s1.4118-.5073 1.9424-1.0377.892-1.2062 1.0385-1.942.0715-1.49846-.2155-2.19161c-.287-.69316-.7731-1.28565-1.3968-1.70255-.62372-.41689-1.35706-.63946-2.10728-.63956zm0 5.61762c-.36101 0-.71392-.107-1.01409-.3076-.30017-.2005-.53414-.4856-.6723-.8191s-.17433-.7006-.10392-1.05463c.07042-.35408.24424-.67933.4995-.93462.25525-.25529.58048-.42916.93455-.49962.35406-.07046.72108-.03435 1.05462.10377.33355.13812.61865.37204.81925.67219.2006.30014.3077.65303.30775 1.01401.0001.2398-.04704.4772-.13874.6987-.09169.2215-.22614.4228-.39566.5924-.16951.1695-.37078.304-.59229.3957s-.45892.1389-.69867.1388z" fill="#fff"/></g></svg>

<svg width="16" height="16" viewBox="0 0 16 16" fill="none" xmlns="http://www.w3.org/2000/svg">
<g clip-path="url(#clip0_113_6324)">
<rect width="16" height="16" rx="2.5" fill="black"/>
<path d="M11.791 3.78877C11.791 4.26318 11.6026 4.71816 11.2671 5.05362C10.9317 5.38908 10.4767 5.57754 10.0023 5.57754C9.52786 5.57754 9.07288 5.38908 8.73742 5.05362C8.40196 4.71816 8.2135 4.26318 8.2135 3.78877C8.2135 3.31436 8.40196 2.85938 8.73742 2.52392C9.07288 2.18846 9.52786 2 10.0023 2C10.4767 2 10.9317 2.18846 11.2671 2.52392C11.6026 2.85938 11.791 3.31436 11.791 3.78877Z" fill="url(#paint0_linear_113_6324)"/>
<path d="M7.99852 6.41388C7.37251 6.413 6.7561 6.56771 6.2047 6.8641V2.57388H4.20496V10.2059C4.20476 10.9562 4.42703 11.6896 4.84368 12.3135C5.26032 12.9374 5.85261 13.4237 6.54566 13.7109C7.2387 13.9982 8.00137 14.0735 8.7372 13.9273C9.47303 13.7811 10.149 13.42 10.6796 12.8896C11.2102 12.3592 11.5716 11.6834 11.7181 10.9476C11.8646 10.2118 11.7896 9.44914 11.5026 8.75599C11.2156 8.06283 10.7295 7.47034 10.1058 7.05344C9.48208 6.63655 8.74874 6.41398 7.99852 6.41388ZM7.99852 12.0315C7.63751 12.0315 7.2846 11.9245 6.98443 11.7239C6.68426 11.5234 6.45029 11.2383 6.31213 10.9048C6.17397 10.5713 6.1378 10.2042 6.20821 9.85017C6.27863 9.49609 6.45245 9.17084 6.70771 8.91555C6.96296 8.66026 7.28819 8.48639 7.64226 8.41593C7.99632 8.34547 8.36334 8.38158 8.69688 8.5197C9.03043 8.65782 9.31553 8.89174 9.51613 9.19189C9.71673 9.49203 9.82383 9.84492 9.82388 10.2059C9.82398 10.4457 9.77684 10.6831 9.68514 10.9046C9.59345 11.1261 9.459 11.3274 9.28948 11.497C9.11997 11.6665 8.9187 11.801 8.69719 11.8927C8.47568 11.9844 8.23827 12.0316 7.99852 12.0315Z" fill="white"/>
</g>
<defs>
<linearGradient id="paint0_linear_113_6324" x1="8.73691" y1="5.05413" x2="11.2676" y2="2.52341" gradientUnits="userSpaceOnUse">
<stop stop-color="#E52F08"/>
<stop offset="1" stop-color="#E94F96"/>
</linearGradient>
<clipPath id="clip0_113_6324">
<rect width="16" height="16" fill="white"/>
</clipPath>
</defs>
</svg>
